public/image/timeline/right.svg

<svg width="300" height="300" viewBox="0 0 300 300" fill="none" xmlns="http://www.w3.org/2000/svg">
<path d="M198.778 186.748C219.922 181.275 241.584 178.28 262.825 173.29C263.892 171.229 259.204 172.582 258.04 171.905C252.641 172.904 247.403 174.642 241.939 174.932C221.183 180.18 199.521 181.565 179.153 188.487C171.717 190.773 161.985 192.286 156.845 185.364C158.914 181.371 163.602 179.44 166.609 176.155C161.824 175.705 157.071 175.254 152.383 174.417C148.956 173.773 145.755 173.644 142.425 173.419C136.089 172.839 129.752 171.97 123.383 172.388C120.085 170.714 116.238 171.455 112.714 171.133C104.792 171.583 97.0008 169.909 89.1444 169.619C87.5602 169.104 85.976 168.75 84.3595 168.525C81.7084 169.201 79.9625 169.072 78.831 168.428C77.4731 168.428 76.0829 168.428 74.725 168.364C69.1641 167.559 63.6032 167.784 58.0747 167.301C50.2507 167.108 42.8469 164.307 35.0876 164.017C30.4319 163.695 25.744 163.309 21.1854 162.472C15.1395 161.28 15.9801 148.884 24.4184 153.392C25.0004 150.688 35.7018 156.386 33.762 151.267C29.462 150.044 25.1297 148.82 20.9914 147.146C20.7327 140.964 30.2703 145.955 34.1176 143.636C31.6928 141.64 28.5568 140.449 26.6493 137.873C35.1199 139.612 43.5905 141.157 52.1582 142.22C65.737 142.703 79.1219 145.439 92.7008 145.697C108.22 145.6 124.223 149.206 139.354 147.532C138.61 147.178 137.155 146.502 136.444 146.148C128.168 146.148 119.988 144.731 111.808 143.604C99.8782 141.383 87.6249 142.381 75.6626 140.256C65.64 140.191 55.2942 140.61 45.6274 137.648C41.0364 136.778 36.5424 135.49 32.0161 134.46C32.2101 134.042 32.5658 133.237 32.7598 132.818C37.48 134.203 42.4266 135.265 47.3732 135.362C48.9898 135.587 50.6063 135.812 52.1582 136.295C55.5852 136.424 59.2062 136.682 62.698 136.521C67.5476 137.294 72.2678 138.388 77.2791 137.68C75.5009 136.972 73.6581 136.456 71.9122 135.78C75.4362 135.587 79.1219 135.555 82.7106 135.362C87.2693 135.651 91.8279 136.295 96.3218 137.068C105.665 137.422 115.559 134.299 124.611 137.744C129.719 138.549 134.698 139.58 139.936 139.515C145.4 141.286 151.284 139.837 156.942 140.288L159.334 140.288C168.581 140.706 177.763 138.903 187.009 139.322C188.949 138.936 192.085 139.74 191.859 136.811C191.439 136.489 190.598 135.845 190.178 135.49C187.947 135.49 186.072 134.492 184.294 133.365C182.58 131.917 183.776 129.888 184.1 128.15C182.451 128.922 181.578 131.176 179.573 129.759C174.465 127.924 168.29 124.93 167.967 118.909C171.167 115.013 166.9 109.346 173.592 108.219C181.513 106.964 189.531 111.343 196.644 115.077C201.364 117.106 205.89 119.617 210.643 121.646L210.902 122.515C220.601 126.507 230.171 130.725 240.29 133.623C242.877 134.557 245.496 135.426 248.05 136.489C257.393 138.42 266.737 140.417 275.983 142.896C276.339 145.214 277.018 147.5 278.344 149.496C272.944 150.752 276.662 156.386 277.988 159.703C278.732 162.955 275.886 164.854 273.074 165.595C272.492 168.203 269.841 169.233 267.707 170.328C272.653 174.03 282.676 162.021 282.676 170.231L282.288 171.165C281.641 171.39 280.316 171.841 279.669 172.066C267.707 176.703 255.227 179.858 242.715 182.691C238.253 183.271 233.857 184.044 229.524 185.106C217.691 187.296 205.47 188.777 194.122 192.769C184.003 193.542 194.963 189.195 198.842 186.845L198.778 186.748Z" fill="#1F1B13"/>
</svg>

<svg xmlns="http://www.w3.org/2000/svg" width="300" height="300" fill="none"><path fill="#1F1B13" d="M198.778 186.748c21.144-5.473 42.806-8.468 64.047-13.458 1.067-2.061-3.621-.708-4.785-1.385-5.399.999-10.637 2.737-16.101 3.027-20.756 5.248-42.418 6.633-62.786 13.555-7.436 2.286-17.168 3.799-22.308-3.123 2.069-3.993 6.757-5.924 9.764-9.209-4.785-.45-9.538-.901-14.226-1.738-3.427-.644-6.628-.773-9.958-.998-6.336-.58-12.673-1.449-19.042-1.031-3.298-1.674-7.145-.933-10.669-1.255-7.922.45-15.713-1.224-23.57-1.514a28 28 0 0 0-4.785-1.094c-2.65.676-4.396.547-5.528-.097-1.358 0-2.748 0-4.106-.064-5.56-.805-11.122-.58-16.65-1.063-7.824-.193-15.228-2.994-22.987-3.284-4.656-.322-9.344-.708-13.903-1.545-6.045-1.192-5.205-13.588 3.233-9.08.582-2.704 11.284 2.994 9.344-2.125-4.3-1.223-8.632-2.447-12.77-4.121-.26-6.182 9.278-1.191 13.126-3.51-2.425-1.996-5.561-3.187-7.469-5.763 8.47 1.739 16.941 3.284 25.51 4.347 13.578.483 26.963 3.219 40.542 3.477 15.519-.097 31.522 3.509 46.653 1.835-.744-.354-2.199-1.03-2.91-1.384-8.276 0-16.456-1.417-24.636-2.544-11.93-2.221-24.183-1.223-36.145-3.348-10.023-.065-20.369.354-30.036-2.608-4.59-.87-9.085-2.158-13.61-3.188.193-.418.549-1.223.743-1.642 4.72 1.385 9.667 2.447 14.613 2.544 1.617.225 3.233.45 4.785.933 3.427.129 7.048.387 10.54.226 4.85.773 9.57 1.867 14.581 1.159-1.778-.708-3.62-1.224-5.367-1.9 3.524-.193 7.21-.225 10.799-.418 4.558.289 9.117.933 13.61 1.706 9.344.354 19.238-2.769 28.29.676 5.108.805 10.087 1.836 15.325 1.771 5.464 1.771 11.348.322 17.006.773h2.392c9.247.418 18.429-1.385 27.675-.966 1.94-.386 5.076.418 4.85-2.511-.42-.322-1.261-.966-1.681-1.321-2.231 0-4.106-.998-5.884-2.125-1.714-1.448-.518-3.477-.194-5.215-1.649.772-2.522 3.026-4.527 1.609-5.108-1.835-11.283-4.829-11.606-10.85 3.2-3.896-1.067-9.563 5.625-10.69 7.921-1.255 15.939 3.124 23.052 6.858 4.72 2.029 9.246 4.54 13.999 6.569l.259.869c9.699 3.992 19.269 8.21 29.388 11.108 2.587.934 5.206 1.803 7.76 2.866 9.343 1.931 18.687 3.928 27.933 6.407.356 2.318 1.035 4.604 2.361 6.6-5.4 1.256-1.682 6.89-.356 10.207.744 3.252-2.102 5.151-4.914 5.892-.582 2.608-3.233 3.638-5.367 4.733 4.946 3.702 14.969-8.307 14.969-.097l-.388.934c-.647.225-1.972.676-2.619.901-11.962 4.637-24.442 7.792-36.954 10.625-4.462.58-8.858 1.353-13.191 2.415-11.833 2.19-24.054 3.671-35.402 7.663-10.119.773.841-3.574 4.72-5.924z"/></svg>
